T: Schottische Du Stockfish
M: 4/4
L: 1/8
K: Amin
|:ABcd e2ef|edce d2dd|e2e2 A2A2|Bcdc B2B2 |
ABcd e2ef|edce d2dd|e2e2 A2Ac|BAGB A2A2 :|
|:e2e2 g3e |d2c2 d4  |d2e2 A2A2|Bcdc B4 |
e2e2 g3e |d2c2 d4  |d2e2 A2Ac|BAGB A4 :|
